Chess.Player.MAUI/Resources/Images/online.svg

<?xml version="1.0" encoding="utf-8"?><!-- Uploaded to: SVG Repo, www.svgrepo.com, Generator: SVG Repo Mixer Tools -->
<svg width="800px" height="800px" viewBox="0 0 24 24" fill="none" xmlns="http://www.w3.org/2000/svg">
<path d="M16.2426 7.75738C18.5858 10.1005 18.5858 13.8995 16.2426 16.2427M7.75736 16.2426C5.41421 13.8995 5.41421 10.1005 7.75736 7.75735M4.92893 19.0711C1.02369 15.1658 1.02369 8.8342 4.92893 4.92896M19.0711 4.929C22.9763 8.83424 22.9763 15.1659 19.0711 19.0711M14 12C14 13.1046 13.1046 14 12 14C10.8954 14 10 13.1046 10 12C10 10.8955 10.8954 10 12 10C13.1046 10 14 10.8955 14 12Z" stroke="#000000" stroke-width="2" stroke-linecap="round" stroke-linejoin="round"/>
</svg>

<svg version="1.2" xmlns="http://www.w3.org/2000/svg" viewBox="0 0 24 24" width="24" height="24"><style>.a{fill:none;stroke:#000;stroke-linecap:round;stroke-linejoin:round;stroke-width:2}</style><path class="a" d="m16.2 7.8c2.4 2.3 2.4 6.1 0 8.4"/><path class="a" d="m7.8 16.2c-2.4-2.3-2.4-6.1 0-8.4"/><path class="a" d="m4.9 19.1c-3.9-3.9-3.9-10.3 0-14.2"/><path class="a" d="m19.1 4.9c3.9 3.9 3.9 10.3 0 14.2"/><path fill-rule="evenodd" class="a" d="m12 14c-1.1 0-2-0.9-2-2 0-1.1 0.9-2 2-2 1.1 0 2 0.9 2 2 0 1.1-0.9 2-2 2z"/></svg>
